images/advantage2.svg

<svg width="270" height="120" viewBox="0 0 270 120" fill="none" xmlns="http://www.w3.org/2000/svg">
<rect width="270" height="120" rx="4" fill="#F5F4FA"/>
<g clip-path="url(#clip0_1_542)">
<path d="M168.461 58.4715C168.458 39.9819 153.466 24.9963 134.975 25C116.486 25.0037 101.5 39.9963 101.504 58.4859C101.507 73.0502 110.925 85.9413 124.8 90.3713C124.932 90.413 125.07 90.4343 125.208 90.4338C125.472 90.4333 125.73 90.3628 125.957 90.2287C126.253 90.0541 126.473 89.7764 126.577 89.449L135.032 62.6521C137.343 62.6404 139.207 60.7568 139.194 58.4459C139.183 56.1345 137.3 54.2706 134.988 54.2824C134.367 54.285 133.753 54.4282 133.194 54.7011L122.025 43.5302C121.471 42.9951 120.588 43.0106 120.053 43.5644C119.53 44.1054 119.53 44.962 120.053 45.503L131.216 56.6792C130.36 58.4277 130.849 60.5383 132.39 61.7303L124.334 87.2647C108.414 81.4002 100.262 63.7405 106.126 47.8203C111.991 31.9 129.65 23.7482 145.571 29.6127C161.491 35.4771 169.643 53.1374 163.778 69.0571C160.913 76.8351 155.026 83.1252 147.455 86.4989L146.584 82.3989C146.425 81.6454 145.684 81.1636 144.931 81.3233C144.693 81.3741 144.473 81.4857 144.291 81.6475L135.898 89.1409C135.322 89.653 135.271 90.5347 135.783 91.1105C135.95 91.2974 136.164 91.4362 136.403 91.5126L147.119 94.9327C147.852 95.1682 148.638 94.765 148.873 94.0312C148.948 93.7994 148.96 93.5527 148.91 93.3145L148.055 89.2915C160.445 84.0678 168.49 71.918 168.461 58.4715ZM134.983 57.0766C135.753 57.0766 136.378 57.7014 136.378 58.4715C136.378 59.2422 135.753 59.8665 134.983 59.8665C134.212 59.8665 133.588 59.2422 133.588 58.4715C133.588 57.7014 134.212 57.0766 134.983 57.0766ZM139.577 89.5916L144.355 85.3298L145.674 91.543L139.577 89.5916Z" fill="#212121"/>
<path d="M133.588 31.9673V34.7572C133.588 35.5278 134.212 36.1522 134.983 36.1522C135.753 36.1522 136.378 35.5278 136.378 34.7572V31.9673C136.378 31.1972 135.753 30.5723 134.983 30.5723C134.212 30.5723 133.588 31.1972 133.588 31.9673Z" fill="#2196F3"/>
<path d="M108.479 57.0765C107.708 57.0765 107.084 57.7014 107.084 58.4715C107.084 59.2421 107.708 59.8665 108.479 59.8665H111.269C112.039 59.8665 112.664 59.2421 112.664 58.4715C112.664 57.7014 112.039 57.0765 111.269 57.0765H108.479Z" fill="#2196F3"/>
<path d="M161.487 59.8665C162.257 59.8665 162.882 59.2421 162.882 58.4715C162.882 57.7014 162.257 57.0765 161.487 57.0765H158.697C157.927 57.0765 157.302 57.7014 157.302 58.4715C157.302 59.2421 157.927 59.8665 158.697 59.8665H161.487Z" fill="#2196F3"/>
</g>
<defs>
<clipPath id="clip0_1_542">
<rect width="70" height="70" fill="white" transform="translate(100 25)"/>
</clipPath>
</defs>
</svg>

<svg width="270" height="120" fill="none" xmlns="http://www.w3.org/2000/svg">
  <rect width="270" height="120" rx="4" fill="#F5F4FA"/>
  <g clip-path="url(#a)">
    <path d="M168.461 58.471c-.003-18.49-14.995-33.475-33.486-33.471-18.489.004-33.475 14.996-33.471 33.486A33.478 33.478 0 0 0 124.8 90.37c.132.042.27.063.408.063.264 0 .522-.071.749-.205.296-.175.516-.453.62-.78l8.455-26.797a4.183 4.183 0 0 0 4.162-4.206 4.184 4.184 0 0 0-4.206-4.164 4.131 4.131 0 0 0-1.794.42L122.025 43.53a1.395 1.395 0 0 0-1.972 1.973l11.163 11.176a4.104 4.104 0 0 0 1.174 5.051l-8.056 25.535c-15.92-5.865-24.072-23.525-18.208-39.445 5.865-15.92 23.524-24.072 39.445-18.207 15.92 5.864 24.072 23.524 18.207 39.444A30.72 30.72 0 0 1 147.455 86.5l-.871-4.1a1.394 1.394 0 0 0-2.293-.752l-8.393 7.494a1.395 1.395 0 0 0 .505 2.372l10.716 3.42a1.394 1.394 0 0 0 1.791-1.619l-.855-4.022a33.37 33.37 0 0 0 20.406-30.82Zm-33.478-1.394a1.395 1.395 0 1 1 0 2.79 1.395 1.395 0 0 1 0-2.79Zm4.594 32.515 4.778-4.262 1.319 6.213-6.097-1.951Z" fill="#212121"/>
    <path d="M133.588 31.967v2.79a1.395 1.395 0 1 0 2.79 0v-2.79a1.395 1.395 0 0 0-2.79 0ZM108.479 57.077a1.395 1.395 0 1 0 0 2.79h2.79a1.395 1.395 0 0 0 0-2.79h-2.79ZM161.487 59.867a1.395 1.395 0 0 0 0-2.79h-2.79a1.395 1.395 0 0 0 0 2.79h2.79Z" fill="#2196F3"/>
  </g>
  <defs>
    <clipPath id="a">
      <path fill="#fff" transform="translate(100 25)" d="M0 0h70v70H0z"/>
    </clipPath>
  </defs>
</svg>
